X:1
I:linebreak $
T:St. Paul's Cathedral (Verse 4)
C:Margaret of Raynsford and Jadwiga Krzyzanowska
N:Free for non-commercial use within the SCA
M:3/4
L:1/8
K:D minor
"Dm"D3/E/ FFED | "A"^CDEECA, | "Dm"D3/E/ FFED | "C"E3FG2 | "F"F3/G/ AAGF | "C"E3/F/ GGFE | "Dm"D4"C"C2 | "Dm"D6 ::
"Gm"G3/A/ BBAG | "Dm"dcBABc | "Am"A3GA2 | "Dm"F3/G/ AAGF | "Bb"BAGFGA | "C"G3FGA | "Gm"BAGF"C"E2 | "Dm"AGFE"A"^C2 |
"Dm"A3/G/ FAGF | "C"G3/F/ EGFE | "Dm"D4"C"C2 | "Dm"D6 :: "F"F3/G/ AFAB | "C"cdcBAc | "Bb"BAGF"C"E2 | "Dm"D3/E/ FDFG |
"F"ABAGFA | "C"GFED"Am"C2 | "Gm"B,CDE"Dm"F2 | "Am"CDEF"C"G2 | "Dm"A3/G/ FAGF | "C"G3/F/ EGFE | "Dm"D4"C"C2 | "Dm"D6 :|
"Dm"D3/E/ FDEF | "A"ED^CDEC | "Dm"D3EF2 | "C"E3/F/ GEFG | "Bb"B,CDEFG | "C"E3FG2 | "Dm"A3/G/ FAGF | "Dm"D4"C"C2 |
"Dm"D6 |]

